svgs/regular/diagram-nested.svg

<svg xmlns="http://www.w3.org/2000/svg" viewBox="0 0 448 512"><!--! Font Awesome Pro 6.6.0 by @fontawesome - https://fontawesome.com License - https://fontawesome.com/license (Commercial License) Copyright 2024 Fonticons, Inc. --><path d="M144 80l0 96-96 0 0-96 96 0zM48 32C21.5 32 0 53.5 0 80l0 96c0 26.5 21.5 48 48 48l24 0 0 96c0 48.6 39.4 88 88 88l96 0 0 24c0 26.5 21.5 48 48 48l96 0c26.5 0 48-21.5 48-48l0-96c0-26.5-21.5-48-48-48l-96 0c-26.5 0-48 21.5-48 48l0 24-96 0c-22.1 0-40-17.9-40-40l0-96 24 0c26.5 0 48-21.5 48-48l0-96c0-26.5-21.5-48-48-48L48 32zM400 336l0 96-96 0 0-96 96 0z"/></svg>

<svg xmlns="http://www.w3.org/2000/svg" viewBox="0 0 448 512"><!--! Font Awesome Pro 6.4.0 by @fontawesome - https://fontawesome.com License - https://fontawesome.com/license (Commercial License) Copyright 2023 Fonticons, Inc. --><path d="M144 80v96H48V80h96zM48 32C21.5 32 0 53.5 0 80v96c0 26.5 21.5 48 48 48H72v96c0 48.6 39.4 88 88 88h96v24c0 26.5 21.5 48 48 48h96c26.5 0 48-21.5 48-48V336c0-26.5-21.5-48-48-48H304c-26.5 0-48 21.5-48 48v24H160c-22.1 0-40-17.9-40-40V224h24c26.5 0 48-21.5 48-48V80c0-26.5-21.5-48-48-48H48zM400 336v96H304V336h96z"/></svg>
